X: 1
T: STATEN ISLAND -- HORNPIPE
B: Ryan's Mammoth Collection of Fiddle Tunes
R: hornpipe
M: 2/4
L: 1/16
Z: Contributed 20010917193417 by John Chambers jmchambers:rcn.net
K: D
vA2G2 \
| FDFG A2Bc | defd A2Bc | d2GB A2FA | G2E2 E2(AG) |
| FDFG A2Bc | defd A2Bc | d2d2 efge | f2d2d2 :|
|: vfg \
| va2fa g2eg | f2df e2A2 | dcdf edeg | fdfa e2fg |
|  a2fa g2eg | f2df e2A2 | d2d2 efge | f2d2d2 :|
